images/sh-icn-3.svg

<svg width="50" height="52" viewBox="0 0 50 52" fill="none" xmlns="http://www.w3.org/2000/svg">
<path d="M47.7596 35.7937C49.231 34.3222 49.7229 32.2621 49.0756 30.2828C48.9878 30.0144 48.7669 29.8109 48.4923 29.7452C48.2174 29.6796 47.9285 29.7612 47.7288 29.9608L44.792 32.8977L43.3825 32.5199L43.0047 31.1103L45.9416 28.1735C46.1412 27.9738 46.2229 27.6848 46.1572 27.41C46.0916 27.1354 45.888 26.9145 45.6196 26.8267C43.6405 26.1794 41.5802 26.6712 40.1085 28.1428C39.2992 28.9521 38.7865 29.9992 38.6059 31.1019C35.9633 28.6127 32.7253 26.8817 29.2244 26.0585C32.2448 24.595 34.4962 21.7619 35.1306 18.3134H35.2827C36.5263 18.3134 37.5381 17.3018 37.5381 16.0582C37.5381 15.0054 36.813 14.1188 35.836 13.8715C35.8362 13.8458 35.8363 13.8202 35.8363 13.7946C35.8363 9.05836 32.9266 4.87693 28.5393 3.21405C28.4735 2.82507 28.3118 2.46777 28.0582 2.15851C27.2638 1.18971 25.7241 0.89294 24.5723 0.814534C24.5354 0.812097 24.4987 0.812097 24.4618 0.814534C23.31 0.89294 21.7703 1.18981 20.9759 2.15851C20.7222 2.46787 20.5606 2.82507 20.4948 3.21405C16.1076 4.87693 13.1978 9.05846 13.1978 13.7946C13.1978 13.8202 13.1979 13.8458 13.1981 13.8715C12.2211 14.1188 11.496 15.0054 11.496 16.0582C11.496 17.3017 12.5078 18.3134 13.7514 18.3134H13.9035C14.5375 21.7598 16.7866 24.5915 19.8042 26.0558C17.7662 26.5341 15.8108 27.3234 13.9985 28.4054L13.9271 28.2199C13.8065 27.9062 13.5051 27.6992 13.1689 27.6992H10.3777C10.0416 27.6992 9.74023 27.9062 9.61947 28.2199L9.11115 29.5405C8.40844 29.7416 7.73224 30.022 7.09219 30.3775L5.79808 29.8027C5.49086 29.6664 5.13153 29.7331 4.89377 29.9707L2.92 31.9445C2.68235 32.1822 2.61562 32.5416 2.75202 32.8488L3.32676 34.1428C2.97109 34.7829 2.69068 35.4592 2.48958 36.1619L1.16917 36.6702C0.855544 36.7908 0.64856 37.0923 0.64856 37.4284V40.2196C0.64856 40.5557 0.855544 40.8571 1.16917 40.9778L2.48938 41.486C2.69057 42.1892 2.97099 42.8656 3.32656 43.5057L2.75202 44.7993C2.61562 45.1064 2.68235 45.4659 2.92011 45.7036L4.89387 47.6773C5.13163 47.915 5.49096 47.9816 5.79808 47.8453L7.09219 47.2704C7.73224 47.626 8.40844 47.9064 9.11115 48.1075L9.61947 49.4281C9.74013 49.7418 10.0416 49.9487 10.3777 49.9487H13.1689C13.5051 49.9487 13.8064 49.7418 13.9271 49.4281L14.4354 48.1079C15.1385 47.9067 15.8149 47.6263 16.4549 47.2707L17.7486 47.8453C18.0559 47.9818 18.4153 47.915 18.6529 47.6772L20.6266 45.7034C20.8643 45.4658 20.931 45.1063 20.7946 44.7992L20.7747 44.7544H24.809C24.6391 45.6383 24.6905 46.5676 24.9834 47.463C25.0712 47.7314 25.2921 47.9349 25.5667 48.0006C25.8416 48.0663 26.1305 47.9846 26.3303 47.785L29.267 44.8482L30.6766 45.2259L31.0544 46.6356L28.1177 49.5723C27.9179 49.772 27.8362 50.061 27.9018 50.3357C27.9674 50.6104 28.1711 50.8313 28.4395 50.9191C28.9978 51.1017 29.5692 51.1907 30.1346 51.1907C31.544 51.1907 32.9159 50.6376 33.9503 49.6031C35.239 48.3143 35.7755 46.4962 35.4384 44.7545H44.1455C44.3761 44.7545 44.5958 44.6566 44.7498 44.4852C44.9039 44.3138 44.9779 44.0848 44.9534 43.8556C44.7088 41.5703 44.0913 39.3752 43.1172 37.3124C44.7893 37.5579 46.5428 37.0102 47.7596 35.7937ZM20.6074 4.92324L21.2019 9.50087C21.2597 9.94582 21.6662 10.2596 22.1123 10.202C22.5572 10.1442 22.8711 9.7366 22.8134 9.29155L22.0952 3.76076C22.055 3.4514 22.1475 3.29266 22.2325 3.18896C22.5503 2.8015 23.4021 2.52271 24.5172 2.43974C25.6322 2.52271 26.484 2.8015 26.8018 3.18896C26.8868 3.29266 26.9792 3.4513 26.9391 3.76076L26.221 9.29155C26.1633 9.7366 26.4771 10.1442 26.9221 10.202C26.9576 10.2065 26.9929 10.2088 27.0277 10.2088C27.4299 10.2088 27.7793 9.91027 27.8325 9.50077L28.4269 4.92324C31.9233 6.45796 34.2115 9.90793 34.2115 13.7947C34.2115 13.7975 34.2114 13.8002 34.2114 13.803H30.7777V8.64917C30.7777 8.20046 30.4139 7.83667 29.9652 7.83667C29.5165 7.83667 29.1527 8.20046 29.1527 8.64917V13.803H19.8819V8.64917C19.8819 8.20046 19.5181 7.83667 19.0694 7.83667C18.6207 7.83667 18.2569 8.20046 18.2569 8.64917V13.803H14.8232C14.8232 13.8002 14.8231 13.7975 14.8231 13.7947C14.8228 9.90803 17.1109 6.45796 20.6074 4.92324ZM13.121 16.0583C13.121 15.7107 13.4038 15.428 13.7514 15.428H14.0422H34.9917H35.2826C35.6302 15.428 35.913 15.7107 35.913 16.0583C35.913 16.4058 35.6302 16.6885 35.2826 16.6885H14.5932C14.5929 16.6885 14.5925 16.6885 14.5922 16.6885H13.7514C13.4038 16.6885 13.121 16.4058 13.121 16.0583ZM15.5616 18.3135H33.4725C32.5649 22.4753 28.865 25.5115 24.5171 25.5115C20.1692 25.5115 16.4693 22.4753 15.5616 18.3135ZM17.8983 46.1338L16.7339 45.6166C16.4893 45.5078 16.2064 45.5269 15.9781 45.6674C15.2527 46.1142 14.4655 46.4405 13.6385 46.6374C13.3779 46.6994 13.1645 46.8858 13.0683 47.1359L12.611 48.3237H10.9356L10.4782 47.1355C10.382 46.8855 10.1686 46.6989 9.90811 46.637C9.08139 46.4402 8.29439 46.1139 7.56903 45.6672C7.34072 45.5264 7.05797 45.5079 6.8132 45.6164L5.64828 46.1338L4.46355 44.9491L4.98071 43.7848C5.08938 43.5399 5.07049 43.2572 4.92993 43.029C4.48315 42.3035 4.15683 41.5163 3.9599 40.6893C3.89795 40.4287 3.71148 40.2153 3.46143 40.1191L2.27356 39.6618V37.9864L3.46164 37.5291C3.71158 37.4329 3.89815 37.2195 3.96011 36.959C4.15693 36.1323 4.48315 35.3453 4.93003 34.6197C5.07059 34.3915 5.08948 34.1087 4.98081 33.8639L4.46355 32.6992L5.64828 31.5144L6.8131 32.0318C7.05786 32.1405 7.34061 32.1217 7.56893 31.981C8.29439 31.5343 9.0814 31.208 9.90801 31.0112C10.1685 30.9492 10.3819 30.7627 10.4781 30.5127L10.9355 29.3244H12.6109L13.0683 30.5127C13.1645 30.7627 13.3779 30.9492 13.6384 31.0112C14.4651 31.208 15.2521 31.5342 15.9775 31.981C16.2058 32.1217 16.4887 32.1403 16.7333 32.0318L17.8981 31.5144L19.0829 32.6991L18.5657 33.8634C18.457 34.1082 18.4759 34.391 18.6164 34.6191C19.0633 35.3449 19.3897 36.1321 19.5865 36.959C19.6485 37.2196 19.8349 37.433 20.085 37.5292L21.2729 37.9864V39.6618L20.0846 40.1192C19.8346 40.2154 19.6481 40.4288 19.5861 40.6893C19.3893 41.516 19.0631 42.303 18.6163 43.0284C18.4757 43.2566 18.4568 43.5393 18.5655 43.7842L19.0829 44.949L17.8983 46.1338ZM26.2994 41.9521C25.943 42.3086 25.644 42.7052 25.4048 43.1294H20.4166C20.6798 42.6022 20.8945 42.053 21.0567 41.4861L22.3773 40.9778C22.691 40.8572 22.898 40.5557 22.898 40.2196V37.4284C22.898 37.0923 22.691 36.7909 22.3773 36.6702L21.0571 36.162C20.856 35.459 20.5755 34.7826 20.2199 34.1423L20.7945 32.8487C20.9309 32.5415 20.8642 32.1821 20.6264 31.9444L18.6526 29.9707C18.415 29.733 18.0557 29.6665 17.7484 29.8027L16.4543 30.3775C15.9807 30.1145 15.4873 29.8928 14.978 29.7136C17.866 28.0245 21.1411 27.1364 24.517 27.1364C29.9522 27.1364 35.104 29.4657 38.7015 33.5353L31.6508 40.586C29.7632 40.0302 27.7128 40.5388 26.2994 41.9521ZM33.6292 44.3447C34.207 45.7601 33.882 47.373 32.8011 48.454C32.1519 49.1032 31.3133 49.4814 30.4355 49.5523L32.5351 47.4528C32.7404 47.2476 32.8205 46.9484 32.7454 46.668L32.1248 44.352C32.0497 44.0716 31.8307 43.8527 31.5503 43.7775L29.2344 43.1571C29.1649 43.1384 29.0943 43.1294 29.0242 43.1294C28.8115 43.1294 28.604 43.213 28.4497 43.3674L26.3502 45.467C26.4213 44.5892 26.7995 43.7504 27.4485 43.1012C28.5295 42.0203 30.142 41.6956 31.5579 42.2733C31.8606 42.3969 32.2081 42.3269 32.4396 42.0956L40.2522 34.2829C40.4835 34.0516 40.5536 33.7041 40.4299 33.4013C39.8608 32.0075 40.1936 30.3561 41.2577 29.2919C41.9201 28.6297 42.7528 28.2509 43.6314 28.1856L41.524 30.2929C41.3188 30.4982 41.2386 30.7974 41.3138 31.0778L41.9343 33.3937C42.0095 33.6741 42.2285 33.893 42.5088 33.9682L44.8245 34.5887C45.1049 34.664 45.4041 34.5837 45.6095 34.3785L47.7168 32.2711C47.6515 33.1496 47.2729 33.9824 46.6106 34.6445C45.5463 35.7088 43.895 36.0418 42.5013 35.4725C42.1984 35.3489 41.851 35.419 41.6196 35.6502L33.8068 43.463C33.5755 43.6944 33.5054 44.0419 33.6292 44.3447ZM36.4385 43.1294L41.6206 37.9473C42.4035 39.5912 42.94 41.327 43.2199 43.1294H36.4385ZM11.7733 33.1438C8.64122 33.1438 6.09302 35.692 6.09302 38.8241C6.09302 41.9563 8.64122 44.5045 11.7733 44.5045C14.9054 44.5045 17.4536 41.9563 17.4536 38.8241C17.4535 35.692 14.9053 33.1438 11.7733 33.1438ZM11.7733 42.8794C9.53721 42.8794 7.71802 41.0602 7.71802 38.824C7.71802 36.5879 9.53721 34.7687 11.7733 34.7687C14.0094 34.7687 15.8286 36.5879 15.8286 38.824C15.8285 41.0602 14.0093 42.8794 11.7733 42.8794Z" fill="#EE421D"/>
</svg>

<svg xmlns="http://www.w3.org/2000/svg" width="50" height="52" fill="none"><path fill="#EE421D" d="M47.76 35.794c1.471-1.472 1.963-3.532 1.316-5.511a.813.813 0 0 0-1.347-.322l-2.937 2.937-1.41-.378-.377-1.41 2.937-2.936a.813.813 0 0 0-.322-1.347c-1.98-.648-4.04-.156-5.511 1.316a5.43 5.43 0 0 0-1.503 2.959 20.53 20.53 0 0 0-9.382-5.044 10.78 10.78 0 0 0 5.907-7.745h.152a2.26 2.26 0 0 0 2.255-2.255 2.26 2.26 0 0 0-1.702-2.187v-.076c0-4.737-2.91-8.918-7.297-10.58a2.24 2.24 0 0 0-.48-1.056c-.795-.97-2.335-1.266-3.487-1.344a1 1 0 0 0-.11 0c-1.152.078-2.692.375-3.486 1.344-.254.309-.415.666-.481 1.055a11.28 11.28 0 0 0-7.297 10.657 2.26 2.26 0 0 0-1.702 2.187 2.26 2.26 0 0 0 2.255 2.255h.152a10.78 10.78 0 0 0 5.901 7.743A20.4 20.4 0 0 0 14 28.406l-.072-.186a.81.81 0 0 0-.758-.52h-2.791a.81.81 0 0 0-.759.52l-.508 1.32a9.6 9.6 0 0 0-2.019.838l-1.294-.575a.81.81 0 0 0-.904.168L2.92 31.945a.81.81 0 0 0-.168.904l.575 1.294a9.6 9.6 0 0 0-.837 2.019l-1.32.508a.81.81 0 0 0-.521.758v2.792c0 .336.207.637.52.758l1.32.508c.202.703.482 1.38.838 2.02l-.575 1.293a.81.81 0 0 0 .168.905l1.974 1.973a.81.81 0 0 0 .904.168l1.294-.575c.64.356 1.316.636 2.02.837l.507 1.321c.121.314.423.52.759.52h2.79a.81.81 0 0 0 .76-.52l.507-1.32a9.6 9.6 0 0 0 2.02-.837l1.294.574c.307.137.666.07.904-.168l1.974-1.974a.81.81 0 0 0 .168-.904l-.02-.045h4.034a5.4 5.4 0 0 0 .174 2.709.813.813 0 0 0 1.347.322l2.937-2.937 1.41.378.377 1.41-2.936 2.936a.812.812 0 0 0 .322 1.347 5.385 5.385 0 0 0 5.51-1.316 5.4 5.4 0 0 0 1.488-4.849h8.707a.81.81 0 0 0 .808-.898 20.3 20.3 0 0 0-1.836-6.544c1.672.246 3.426-.302 4.643-1.518M20.607 4.924l.595 4.577a.812.812 0 1 0 1.611-.21l-.718-5.53c-.04-.31.053-.468.138-.572.317-.388 1.17-.666 2.284-.75 1.115.084 1.967.362 2.285.75.085.104.177.262.137.572l-.718 5.53a.813.813 0 0 0 1.611.21l.595-4.578a9.66 9.66 0 0 1 5.785 8.872v.008h-3.434V8.649a.813.813 0 0 0-1.625 0v5.154h-9.271V8.649a.813.813 0 0 0-1.625 0v5.154h-3.434v-.008a9.66 9.66 0 0 1 5.784-8.872m-7.486 11.134c0-.347.283-.63.63-.63h21.531a.631.631 0 0 1 0 1.26H13.752a.63.63 0 0 1-.63-.63m2.44 2.256h17.911a9.16 9.16 0 0 1-8.955 7.198 9.16 9.16 0 0 1-8.955-7.198m2.337 27.82-1.164-.517a.81.81 0 0 0-.756.05 8 8 0 0 1-2.34.97.81.81 0 0 0-.57.499l-.457 1.188h-1.675l-.458-1.188a.81.81 0 0 0-.57-.499 8 8 0 0 1-2.339-.97.81.81 0 0 0-.756-.05l-1.165.517-1.184-1.185.517-1.164a.81.81 0 0 0-.051-.756 8 8 0 0 1-.97-2.34.81.81 0 0 0-.499-.57l-1.187-.457v-1.676l1.188-.457a.81.81 0 0 0 .498-.57 8 8 0 0 1 .97-2.34.81.81 0 0 0 .05-.755l-.516-1.165 1.184-1.185 1.165.518c.245.109.528.09.756-.051a8 8 0 0 1 2.339-.97.81.81 0 0 0 .57-.498l.457-1.189h1.676l.457 1.189c.097.25.31.436.57.498a8 8 0 0 1 2.34.97c.228.14.51.16.755.05l1.165-.517 1.185 1.185-.517 1.164a.81.81 0 0 0 .05.756 8 8 0 0 1 .97 2.34c.063.26.249.474.499.57l1.188.457v1.676l-1.188.457a.81.81 0 0 0-.499.57 8 8 0 0 1-.97 2.34.81.81 0 0 0-.05.755l.517 1.165zm8.401-4.182a5.5 5.5 0 0 0-.894 1.177h-4.988a9.6 9.6 0 0 0 .64-1.643l1.32-.508a.81.81 0 0 0 .521-.758v-2.792a.81.81 0 0 0-.52-.758l-1.32-.508a9.6 9.6 0 0 0-.838-2.02l.575-1.293a.81.81 0 0 0-.169-.905l-1.973-1.973a.81.81 0 0 0-.905-.168l-1.294.575a9.6 9.6 0 0 0-1.476-.664 18.84 18.84 0 0 1 9.539-2.578c5.435 0 10.587 2.33 14.185 6.4l-7.051 7.05a5.4 5.4 0 0 0-5.352 1.366m7.33 2.393a3.78 3.78 0 0 1-.828 4.109 3.77 3.77 0 0 1-2.366 1.098l2.1-2.1a.81.81 0 0 0 .21-.784l-.62-2.316a.81.81 0 0 0-.575-.574l-2.316-.62a.81.81 0 0 0-.784.21l-2.1 2.099a3.77 3.77 0 0 1 1.098-2.366 3.78 3.78 0 0 1 4.11-.828c.303.124.65.054.882-.177l7.812-7.813a.81.81 0 0 0 .178-.882 3.83 3.83 0 0 1 .828-4.11 3.73 3.73 0 0 1 2.373-1.105l-2.107 2.107a.81.81 0 0 0-.21.785l.62 2.316c.076.28.294.499.575.574l2.316.62c.28.076.58-.004.784-.21l2.108-2.107a3.73 3.73 0 0 1-1.106 2.374 3.83 3.83 0 0 1-4.11.827.81.81 0 0 0-.881.178l-7.813 7.813a.81.81 0 0 0-.178.882m2.81-1.216 5.182-5.182a18.7 18.7 0 0 1 1.599 5.182zm-24.666-9.985a5.687 5.687 0 0 0-5.68 5.68 5.687 5.687 0 0 0 5.68 5.68 5.687 5.687 0 0 0 5.68-5.68 5.687 5.687 0 0 0-5.68-5.68m0 9.735a4.06 4.06 0 0 1-4.055-4.055 4.06 4.06 0 0 1 4.055-4.055 4.06 4.06 0 0 1 4.056 4.055 4.06 4.06 0 0 1-4.056 4.055"/></svg>
